X: 4313
T: COME WITH THE GIPSY BRIDE. (Bohemian Girl.)
%R: air, waltz, jig
B: James Kerr "Merry Melodies" v.4 p.33 #313
Z: 2016 John Chambers <jc:trillian.mit.edu>
M: 6/8
L: 1/8
K: G
|:\
B3- Bc^c | dBg d3- | deB c3- | cAd D2z |\
B3- Bc^c | dBg d3- | deB cAd | G2z [g2B2]z H:|
Bc^c deB | d2z c3- | cB^A Bed | c3- c2z |\
^cd^d efc | e2z d3- | d^cB cfe | d3 "_D.C."^c3 |]

%%sep 1 1 500
%%sep 1 1 500

